!!!!SEGMENT: pl-wtm--r-1449_stefani-jozef--krakowiak-no-3.krn
!!!cenid: 18xx:2468
!!!COM: Stefani, Józef
!!!COM-rismid: pe30024097
!!!CDT: 1800/04/16-1876/03/19
!!!CNT: Polish
!!!OTL: Krakowiak No. 3
!!!PDT:
!!!AGN: Secular; Krakowiak
!!!SMS-siglum: PL-Wtm
!!!SMS-shelfmark: R 1449
!!!SMS-shelfwork: W
!!!SMS-variant:
!!!SMS-altvar:
!!!NIFC-rismid: 1001116475
!!!URL-scan: http://repozytoriumplikow.nifc.pl/skany/pl-wtm-nut--r1449
!!!ONB-nifc:
!!!AIN: 1 cbass 1 cello 1 cor 1 fagot 1 flt 1 oboe 1 picco 1 soprn 1 tromp 1 viola 2 violn
!!!key:
**kern	**dynam	**kern	**dynam	**kern	**text	**kern	**dynam	**kern	**dynam	**kern	**dynam	**kern	**kern	**dynam	**kern	**dynam	**kern	**dynam	**kern	**dynam	**kern	**dynam
*group3	*	*group3	*	*	*	*	*	*group2	*	*group2	*	*group1	*group1	*	*group1	*	*group1	*	*group1	*	*group1	*
*part12	*part12	*part11	*part11	*part10	*part10	*part9	*part9	*part8	*part8	*part7	*part7	*part6	*part5	*part5	*part4	*part4	*part3	*part3	*part2	*part2	*part1	*part1
*staff12	*	*staff11	*	*staff10	*staff10	*staff9	*	*staff8	*	*staff7	*	*staff6	*staff5	*	*staff4	*	*staff3	*	*staff2	*	*staff1	*
*Icbass	*	*Icello	*	*Isoprn	*	*Iviola	*	*Ivioln	*	*Ivioln	*	*Itromp	*Ifagot	*	*Icor	*	*Ioboe	*	*Iflt	*	*Ipicco	*
*I"[Contrabbasso]	*	*I"[Violoncello]	*	*I"[Soprano]	*	*I"[Viola]	*	*I"[Violino]	*	*I"[Violino]	*	*I"[Tromba in C]	*I"[Fagotto]	*	*I"[Corni in]	*	*I"[Oboe]	*	*I"[Flauto]	*	*I"[Flauto piccolo]	*
*clefF4	*	*clefF4	*	*clefG2	*	*clefC3	*	*clefG2	*	*clefG2	*	*clefG2	*clefF4	*	*clefG2	*	*clefG2	*	*clefG2	*	*clefG2	*
*ITrd0c0	*	*	*	*	*	*	*	*	*	*	*	*	*	*	*ITrd4c7	*	*	*	*	*	*ITrd0c0	*
*k[b-]	*	*k[b-]	*	*k[b-]	*	*k[b-]	*	*k[b-]	*	*k[b-]	*	*k[b-]	*k[b-]	*	*k[b-]	*	*k[b-]	*	*k[b-]	*	*k[b-]	*
*F:	*	*F:	*	*F:	*	*F:	*	*F:	*	*F:	*	*F:	*F:	*	*F:	*	*F:	*	*F:	*	*F:	*
*M2/4	*	*M2/4	*	*M2/4	*	*M2/4	*	*M2/4	*	*M2/4	*	*M2/4	*M2/4	*	*M2/4	*	*M2/4	*	*M2/4	*	*M2/4	*
*all\right	*	*all\right	*	*all\right	*	*all\right	*	*all\right	*	*all\right	*	*all\right	*all\right	*	*all\right	*	*all\right	*	*all\right	*	*all\right	*
*2\right	*	*2\right	*	*2\right	*	*2\right	*	*2\right	*	*2\right	*	*2\right	*2\right	*	*2\right	*	*2\right	*	*2\right	*	*2\right	*
=1	=1	=1	=1	=1	=1	=1	=1	=1	=1	=1	=1	=1	=1	=1	=1	=1	=1	=1	=1	=1	=1	=1
!!LO:TX:t=No. 3. Krakowiak
!!LO:TX:t=P:problem:niewłaściwe wyświetlanie łączenia kresek między systemami
!	!	!	!	!	!	!	!	!	!	!	!	!LO:TX:a:t=in C	!	!	!	!	!	!	!	!	!	!
!	!	!	!	!	!	!	!	!	!	!	!	!LO:TX:a:t=Solo	!	!	!	!	!	!	!	!	!LO:TX:a:t=col Tromba 8va	!
!	!	!	!	!LO:TX:a:t=Stanisław	!	!	!	!	!	!	!	!	!	!	!	!	!	!	!	!	!	!
4C/	p	4Cyy/	pyy	2r	.	8r	.	8r	.	8r	.	8.b-|X/L	2ryy	.	2ryy	.	2ryy	.	2ryy	.	8.bb-|yyX\L	.
*	*	*	*	*	*	*tremolo	*	*tremolo	*	*tremolo	*	*	*	*	*	*	*	*	*	*	*	*
.	.	.	.	.	.	8G/L	.	8c/L	.	8B-/L 8e	.	.	.	.	.	.	.	.	.	.	.	.
.	.	.	.	.	.	.	.	.	.	.	.	16g|/K	.	.	.	.	.	.	.	.	16gg|yy\K	.
4r	.	4ryy	.	.	.	8G/	.	8c/	.	8B-/ 8e	.	8e|/	.	.	.	.	.	.	.	.	8ee|yy\	.
.	.	.	.	.	.	8G/J	.	8c/J	.	8B-/J 8e	.	8c|/J	.	.	.	.	.	.	.	.	8cc|yy\J	.
*	*	*	*	*	*	*Xtremolo	*	*Xtremolo	*	*Xtremolo	*	*	*	*	*	*	*	*	*	*	*	*
=2	=2	=2	=2	=2	=2	=2	=2	=2	=2	=2	=2	=2	=2	=2	=2	=2	=2	=2	=2	=2	=2	=2
4FF/	.	4FFyy/	.	2r	.	8r	.	8r	.	8r	.	8f|/	2ryy	.	2ryy	.	2ryy	.	2ryy	.	8ff|yy\	.
*	*	*	*	*	*	*tremolo	*	*tremolo	*	*tremolo	*	*	*	*	*	*	*	*	*	*	*	*
.	.	.	.	.	.	8F/L	.	8c/L	.	8A/L 8f	.	4a^|>/	.	.	.	.	.	.	.	.	4aa|yy^\	.
4r	.	4ryy	.	.	.	8F/	.	8c/	.	8A/ 8f	.	.	.	.	.	.	.	.	.	.	.	.
.	.	.	.	.	.	8F/J	.	8c/J	.	8A/J 8f	.	8cc|>\	.	.	.	.	.	.	.	.	8ccc|yy\	.
*	*	*	*	*	*	*Xtremolo	*	*Xtremolo	*	*Xtremolo	*	*	*	*	*	*	*	*	*	*	*	*
=3	=3	=3	=3	=3	=3	=3	=3	=3	=3	=3	=3	=3	=3	=3	=3	=3	=3	=3	=3	=3	=3	=3
.	.	.	.	.	.	.	.	.	.	.	.	(8qcc/	.	.	.	.	.	.	.	.	(yy8qcccyy/	.
4F\	.	4Fyy\	.	2r	.	8r	.	8r	.	8r	.	8.b-\L)	2ryy	.	2ryy	.	2ryy	.	2ryy	.	8.bb-yy\L)yy	.
*	*	*	*	*	*	*tremolo	*	*tremolo	*	*tremolo	*	*	*	*	*	*	*	*	*	*	*	*
.	.	.	.	.	.	8F/L	.	8d/L	.	8B-/L 8f	.	.	.	.	.	.	.	.	.	.	.	.
.	.	.	.	.	.	.	.	.	.	.	.	16a|\Jk	.	.	.	.	.	.	.	.	16aa|yy\Jk	.
4r	.	4ryy	.	.	.	8F/	.	8d/	.	8B-/ 8f	.	8b-'\L	.	.	.	.	.	.	.	.	8bb-yy'\L	.
.	.	.	.	.	.	8F/J	.	8d/J	.	8B-/J 8f	.	8dd'\J	.	.	.	.	.	.	.	.	8dddyy'\J	.
*	*	*	*	*	*	*Xtremolo	*	*Xtremolo	*	*Xtremolo	*	*	*	*	*	*	*	*	*	*	*	*
=4	=4	=4	=4	=4	=4	=4	=4	=4	=4	=4	=4	=4	=4	=4	=4	=4	=4	=4	=4	=4	=4	=4
4F\	.	4Fyy\	.	2r	.	8r	.	8r	.	8r	.	8cc|\	2ryy	.	2ryy	.	2ryy	.	2ryy	.	8cccyy|\	.
*	*	*	*	*	*	*tremolo	*	*tremolo	*	*tremolo	*	*	*	*	*	*	*	*	*	*	*	*
.	.	.	.	.	.	8F/L	.	8c/L	.	8A/L 8f	.	4a|/	.	.	.	.	.	.	.	.	4aayy|\	.
4r	.	4ryy	.	.	.	8F/	.	8c/	.	8A/ 8f	.	.	.	.	.	.	.	.	.	.	.	.
.	.	.	.	.	.	8F/J	.	8c/J	.	8A/J 8f	.	8r	.	.	.	.	.	.	.	.	8ryy	.
*	*	*	*	*	*	*Xtremolo	*	*Xtremolo	*	*Xtremolo	*	*	*	*	*	*	*	*	*	*	*	*
=5	=5	=5	=5	=5	=5	=5	=5	=5	=5	=5	=5	=5	=5	=5	=5	=5	=5	=5	=5	=5	=5	=5
4C/	.	4Cyy/	.	2r	.	8r	.	8r	.	8r	.	8.b-X|/L	2ryy	.	2ryy	.	2ryy	.	2ryy	.	8.bb-yy|X\L	.
*	*	*	*	*	*	*tremolo	*	*tremolo	*	*tremolo	*	*	*	*	*	*	*	*	*	*	*	*
.	.	.	.	.	.	8G/L	.	8c/L	.	8B-/L 8e	.	.	.	.	.	.	.	.	.	.	.	.
.	.	.	.	.	.	.	.	.	.	.	.	16g|/K	.	.	.	.	.	.	.	.	16ggyy|\K	.
4r	.	4ryy	.	.	.	8G/	.	8c/	.	8B-/ 8e	.	8e|/	.	.	.	.	.	.	.	.	8eeyy|\	.
.	.	.	.	.	.	8G/J	.	8c/J	.	8B-/J 8e	.	8c|/J	.	.	.	.	.	.	.	.	8ccyy|\J	.
*	*	*	*	*	*	*Xtremolo	*	*Xtremolo	*	*Xtremolo	*	*	*	*	*	*	*	*	*	*	*	*
=6	=6	=6	=6	=6	=6	=6	=6	=6	=6	=6	=6	=6	=6	=6	=6	=6	=6	=6	=6	=6	=6	=6
4FF/	.	4FFyy/	.	2r	.	8r	.	8r	.	8r	.	8f'/	2ryy	.	2ryy	.	2ryy	.	2ryy	.	8ff'yy\	.
*	*	*	*	*	*	*tremolo	*	*tremolo	*	*tremolo	*	*	*	*	*	*	*	*	*	*	*	*
.	.	.	.	.	.	8F/L	.	8c/L	.	8A/L 8f	.	4a'^/	.	.	.	.	.	.	.	.	4aa'yy^<\	.
4r	.	4ryy	.	.	.	8F/	.	8c/	.	8A/ 8f	.	.	.	.	.	.	.	.	.	.	.	.
.	.	.	.	.	.	8F/J	.	8c/J	.	8A/J 8f	.	([8cc|\	.	.	.	.	.	.	.	.	(yy[yy8cccyy|\	.
*	*	*	*	*	*	*Xtremolo	*	*Xtremolo	*	*Xtremolo	*	*	*	*	*	*	*	*	*	*	*	*
=7	=7	=7	=7	=7	=7	=7	=7	=7	=7	=7	=7	=7	=7	=7	=7	=7	=7	=7	=7	=7	=7	=7
4C/	.	4Cyy/	.	2r	.	8r	.	8r	.	8r	.	8.cc\L]	2ryy	.	2ryy	.	2ryy	.	2ryy	.	8.cccyy\L]yy	.
*	*	*	*	*	*	*tremolo	*	*tremolo	*	*tremolo	*	*	*	*	*	*	*	*	*	*	*	*
.	.	.	.	.	.	8G/L	.	8c/L	.	8B-/L 8e	.	.	.	.	.	.	.	.	.	.	.	.
.	.	.	.	.	.	.	.	.	.	.	.	16bn\K)	.	.	.	.	.	.	.	.	16bbnyy\K)yy	.
4r	.	4ryy	.	.	.	8G/	.	8c/	.	8B-/ 8e	.	8b-X'\	.	.	.	.	.	.	.	.	8bb-Xyy'\	.
.	.	.	.	.	.	8G/J	.	8c/J	.	8B-/J 8e	.	8g'\J	.	.	.	.	.	.	.	.	8ggyy'\J	.
*	*	*	*	*	*	*Xtremolo	*	*Xtremolo	*	*Xtremolo	*	*	*	*	*	*	*	*	*	*	*	*
=8	=8	=8	=8	=8	=8	=8	=8	=8	=8	=8	=8	=8	=8	=8	=8	=8	=8	=8	=8	=8	=8	=8
*	*	*	*	*	*	*	*	*	*	*	*	*	*	*	*	*	*^	*	*	*	*	*
8F\	.	8Fyy\	.	2r	.	8F/	.	8c/	.	8A/ 8f	.	8f/	4r	.	4r	.	4r	4ryy	.	4r	.	8ff\	.
8r	.	8ryy	.	.	.	8r	.	8r	.	8r	.	8r	.	.	.	.	.	.	.	.	.	8r	.
4FF/	ff	4FFyy/	ffyy	.	.	4C/ 4A 4f	.	4c/ 4f 4a	ff	4f\ 4cc 4ff	ff	4f/	4F\	.	4A/ 4f	ff	4cc/	4a\	.	4ff\	ff	4fff\	ff
*	*	*	*	*	*	*	*	*	*	*	*	*	*	*	*	*	*v	*v	*	*	*	*	*
=9||	=9||	=9||	=9||	=9||	=9||	=9||	=9||	=9||	=9||	=9||	=9||	=9||	=9||	=9||	=9||	=9||	=9||	=9||	=9||	=9||	=9||	=9||
!	!	!	!	!LO:TX:a:t=Stanisław	!	!	!	!	!	!	!	!	!	!	!	!	!LO:TX:a:t=Iv.	!	!	!	!	!
4C/	p	4Cyy/	pyy	8.b-X/	Hey-	8r	.	8r	p	8.b-|/L	p	2r	2r	.	2r	.	16B-/LL	p	2r	.	2r	.
.	.	.	.	.	.	.	.	.	.	.	.	.	.	.	.	.	16c/	.	.	.	.	.
*	*	*	*	*	*	*tremolo	*	*tremolo	*	*	*	*	*	*	*	*	*	*	*	*	*	*
.	.	.	.	.	.	8G/L 8c	.	8B-/L 8e	.	.	.	.	.	.	.	.	16e/	.	.	.	.	.
.	.	.	.	16g/	-że	.	.	.	.	16g|/K	.	.	.	.	.	.	16c/JJ	.	.	.	.	.
*	*	*	*	*	*	*	*	*	*	*	*	*	*	*	*	*	*rep	*	*	*	*	*
4r	.	4ryy	.	8e/	Ka-	8G/ 8c	.	8B-/ 8e	.	8e|/	.	.	.	.	.	.	16B-/LL	.	.	.	.	.
.	.	.	.	.	.	.	.	.	.	.	.	.	.	.	.	.	16c/	.	.	.	.	.
.	.	.	.	8c/	-siu	8G/J 8c	.	8B-/J 8e	.	8c|/J	.	.	.	.	.	.	16e/	.	.	.	.	.
.	.	.	.	.	.	.	.	.	.	.	.	.	.	.	.	.	16c/JJ	.	.	.	.	.
*	*	*	*	*	*	*Xtremolo	*	*Xtremolo	*	*	*	*	*	*	*	*	*Xrep	*	*	*	*	*
=10	=10	=10	=10	=10	=10	=10	=10	=10	=10	=10	=10	=10	=10	=10	=10	=10	=10	=10	=10	=10	=10	=10
4FF/	.	4FFyy/	.	8f/	do	8r	.	8r	.	8f|/	.	2r	2r	.	2r	.	16A/LL	.	2r	.	2r	.
.	.	.	.	.	.	.	.	.	.	.	.	.	.	.	.	.	16c/	.	.	.	.	.
*	*	*	*	*	*	*tremolo	*	*tremolo	*	*	*	*	*	*	*	*	*	*	*	*	*	*
.	.	.	.	4a/	mnie	8F/L 8c	.	8A/L 8e	.	4a^>|/	.	.	.	.	.	.	16f/	.	.	.	.	.
.	.	.	.	.	.	.	.	.	.	.	.	.	.	.	.	.	16c/JJ	.	.	.	.	.
*	*	*	*	*	*	*	*	*	*	*	*	*	*	*	*	*	*rep	*	*	*	*	*
4r	.	4ryy	.	.	.	8F/ 8c	.	8A/ 8e	.	.	.	.	.	.	.	.	16A/LL	.	.	.	.	.
.	.	.	.	.	.	.	.	.	.	.	.	.	.	.	.	.	16c/	.	.	.	.	.
.	.	.	.	8r	.	8F/J 8c	.	8A/J 8e	.	8cc|\	.	.	.	.	.	.	16f/	.	.	.	.	.
.	.	.	.	.	.	.	.	.	.	.	.	.	.	.	.	.	16c/JJ	.	.	.	.	.
*	*	*	*	*	*	*Xtremolo	*	*Xtremolo	*	*	*	*	*	*	*	*	*Xrep	*	*	*	*	*
=11	=11	=11	=11	=11	=11	=11	=11	=11	=11	=11	=11	=11	=11	=11	=11	=11	=11	=11	=11	=11	=11	=11
.	.	.	.	.	.	.	.	.	.	(8qcc/	.	.	.	.	.	.	.	.	8qcc/	.	8qccc/	p
4F\	.	4Fyy\	.	8.b-\	Nie	8r	.	8r	.	8.b-\L)	.	2r	2r	.	2F/ 2f	p	16B-/LL	.	8.b-/L	.	8.bb-\L	.
.	.	.	.	.	.	.	.	.	.	.	.	.	.	.	.	.	16d/	.	.	.	.	.
*	*	*	*	*	*	*tremolo	*	*tremolo	*	*	*	*	*	*	*	*	*	*	*	*	*	*
.	.	.	.	.	.	8F\L 8d\	.	8B-/L 8f	.	.	.	.	.	.	.	.	16f/	.	.	.	.	.
.	.	.	.	16a\	day	.	.	.	.	16a|\K	.	.	.	.	.	.	16d/JJ	.	16a/K	.	16aa\K	.
*	*	*	*	*	*	*	*	*	*	*	*	*	*	*	*	*	*rep	*	*	*	*	*
4r	.	4ryy	.	8b-\	mi	8F/ 8d	.	8B-/ 8f	.	8b-|\	.	.	.	.	.	.	16B-/LL	.	8b-/	.	8bb-\	.
.	.	.	.	.	.	.	.	.	.	.	.	.	.	.	.	.	16d/	.	.	.	.	.
.	.	.	.	8dd\	pró-	8F\J 8d\	.	8B-/J 8f	.	8dd|\J	.	.	.	.	.	.	16f/	.	8dd/J	.	8ddd\J	.
.	.	.	.	.	.	.	.	.	.	.	.	.	.	.	.	.	16d/JJ	.	.	.	.	.
*	*	*	*	*	*	*Xtremolo	*	*Xtremolo	*	*	*	*	*	*	*	*	*Xrep	*	*	*	*	*
=12	=12	=12	=12	=12	=12	=12	=12	=12	=12	=12	=12	=12	=12	=12	=12	=12	=12	=12	=12	=12	=12	=12
4F\	.	4Fyy\	.	8cc\	-żno-	8r	.	8r	.	8cc|\	.	2r	2r	.	8F/ 8f	.	16A/LL	.	8cc/	.	8ccc\	.
.	.	.	.	.	.	.	.	.	.	.	.	.	.	.	.	.	16c/	.	.	.	.	.
*	*	*	*	*	*	*tremolo	*	*tremolo	*	*	*	*	*	*	*	*	*	*	*	*	*	*
.	.	.	.	4a/	-wać	8F\L 8c\	.	8A/L 8f	.	4a|/	.	.	.	.	4F/ 4f	.	16f/	.	4a/	.	4aa\	.
.	.	.	.	.	.	.	.	.	.	.	.	.	.	.	.	.	16c/JJ	.	.	.	.	.
*	*	*	*	*	*	*	*	*	*	*	*	*	*	*	*	*	*rep	*	*	*	*	*
4r	.	4ryy	.	.	.	8F\ 8c\	.	8A/ 8f	.	.	.	.	.	.	.	.	16ALL	.	.	.	.	.
.	.	.	.	.	.	.	.	.	.	.	.	.	.	.	.	.	16c/	.	.	.	.	.
.	.	.	.	8r	.	8F\J 8c\	.	8A/J 8f	.	8r	.	.	.	.	8r	.	16f/	.	8r	.	8r	.
.	.	.	.	.	.	.	.	.	.	.	.	.	.	.	.	.	16c/JJ	.	.	.	.	.
*	*	*	*	*	*	*Xtremolo	*	*Xtremolo	*	*	*	*	*	*	*	*	*Xrep	*	*	*	*	*
=13	=13	=13	=13	=13	=13	=13	=13	=13	=13	=13	=13	=13	=13	=13	=13	=13	=13	=13	=13	=13	=13	=13
4C/	.	4Cyy/	.	8.b-/	Kie-	8r	.	8r	.	8.b-|/L	.	2r	2r	.	2r	.	16B-/LL	.	2r	.	2r	.
.	.	.	.	.	.	.	.	.	.	.	.	.	.	.	.	.	16c/	.	.	.	.	.
*	*	*	*	*	*	*tremolo	*	*tremolo	*	*	*	*	*	*	*	*	*	*	*	*	*	*
.	.	.	.	.	.	8G/L 8c	.	8B-/L 8e	.	.	.	.	.	.	.	.	16e/	.	.	.	.	.
.	.	.	.	16g/	-dyś-	.	.	.	.	16g|/Jk	.	.	.	.	.	.	16c/JJ	.	.	.	.	.
*	*	*	*	*	*	*	*	*	*	*	*	*	*	*	*	*	*rep	*	*	*	*	*
4r	.	4ryy	.	8e/	-ma	8G/ 8c	.	8B-/ 8e	.	8e|/L	.	.	.	.	.	.	16B-/LL	.	.	.	.	.
.	.	.	.	.	.	.	.	.	.	.	.	.	.	.	.	.	16c/	.	.	.	.	.
.	.	.	.	8c/	we-	8G/J 8c	.	8B-/J 8e	.	8c|/J	.	.	.	.	.	.	16e/	.	.	.	.	.
.	.	.	.	.	.	.	.	.	.	.	.	.	.	.	.	.	16c/JJ	.	.	.	.	.
*	*	*	*	*	*	*Xtremolo	*	*Xtremolo	*	*	*	*	*	*	*	*	*Xrep	*	*	*	*	*
=14	=14	=14	=14	=14	=14	=14	=14	=14	=14	=14	=14	=14	=14	=14	=14	=14	=14	=14	=14	=14	=14	=14
4FF/	.	4FFyy/	.	8f/	-se-	8r	.	8r	.	8f/	.	2r	2r	.	2r	.	16A/LL	.	2r	.	2r	.
.	.	.	.	.	.	.	.	.	.	.	.	.	.	.	.	.	16c/	.	.	.	.	.
*	*	*	*	*	*	*tremolo	*	*tremolo	*	*	*	*	*	*	*	*	*	*	*	*	*	*
.	.	.	.	4a/	-li	8F/L 8c	.	8A/L 8f	.	4a/	.	.	.	.	.	.	16f/	.	.	.	.	.
.	.	.	.	.	.	.	.	.	.	.	.	.	.	.	.	.	16c/JJ	.	.	.	.	.
*	*	*	*	*	*	*	*	*	*	*	*	*	*	*	*	*	*rep	*	*	*	*	*
4r	.	4ryy	.	.	.	8F/ 8c	.	8A/ 8f	.	.	.	.	.	.	.	.	16A/LL	.	.	.	.	.
.	.	.	.	.	.	.	.	.	.	.	.	.	.	.	.	.	16c/	.	.	.	.	.
.	.	.	.	8r	.	8F/J 8c	.	8A/J 8f	.	([8cc\	.	.	.	.	.	.	16f/	.	.	.	.	.
.	.	.	.	.	.	.	.	.	.	.	.	.	.	.	.	.	16c/JJ	.	.	.	.	.
*	*	*	*	*	*	*Xtremolo	*	*Xtremolo	*	*	*	*	*	*	*	*	*Xrep	*	*	*	*	*
=15	=15	=15	=15	=15	=15	=15	=15	=15	=15	=15	=15	=15	=15	=15	=15	=15	=15	=15	=15	=15	=15	=15
4C/	.	4Cyy/	.	8.cc\	trze-	8r	.	8r	.	8.cc\L]	.	2r	2r	.	2c/ 2g	p	16B-/LL	.	2r	.	(8ccc\L	.
.	.	.	.	.	.	.	.	.	.	.	.	.	.	.	.	.	16c/	.	.	.	.	.
*	*	*	*	*	*	*tremolo	*	*tremolo	*	*	*	*	*	*	*	*	*	*	*	*	*	*
.	.	.	.	.	.	8G/L 8c	.	8B-/L 8e	.	.	.	.	.	.	.	.	16e/	.	.	.	8bbn\J)	.
.	.	.	.	16bn\	-ba	.	.	.	.	16bn\Jk)	.	.	.	.	.	.	16c/JJ	.	.	.	.	.
*	*	*	*	*	*	*	*	*	*	*	*	*	*	*	*	*	*rep	*	*	*	*	*
4r	.	4ryy	.	8b-X/	po-	8G/ 8c	.	8B-/ 8e	.	8b-X'/L	.	.	.	.	.	.	16B-/LL	.	.	.	8bb-X'\L	.
.	.	.	.	.	.	.	.	.	.	.	.	.	.	.	.	.	16c/	.	.	.	.	.
.	.	.	.	8g/	-tań-	8G/J 8c	.	8B-/J 8e	.	8g'/J	.	.	.	.	.	.	16e/	.	.	.	8gg'\J	.
.	.	.	.	.	.	.	.	.	.	.	.	.	.	.	.	.	16c/JJ	.	.	.	.	.
*	*	*	*	*	*	*Xtremolo	*	*Xtremolo	*	*	*	*	*	*	*	*	*Xrep	*	*	*	*	*
=16	=16	=16	=16	=16	=16	=16	=16	=16	=16	=16	=16	=16	=16	=16	=16	=16	=16	=16	=16	=16	=16	=16
4F\	.	4Fyy\	.	8g/	-co-	8r	.	8r	.	8g/	.	2r	2r	.	8r	.	16A/LL	.	4r	.	8gg\	.
.	.	.	.	.	.	.	.	.	.	.	.	.	.	.	.	.	16c/	.	.	.	.	.
.	.	.	.	4f/	-wać	8F/L 8c	.	8A/L 8f	.	4f/	.	.	.	.	4A/ 4f	.	16f/	.	.	.	4ff\	.
.	.	.	.	.	.	.	.	.	.	.	.	.	.	.	.	.	16c/JJ	.	.	.	.	.
4r	.	4ryy	.	.	.	8F/J 8c	.	8A/J 8f	.	.	.	.	.	.	.	.	8f/	.	8r	.	.	.
!	!	!	!	!	!	!	!	!	!	!	!	!	!	!	!	!	!	!	!LO:TUP:b:problem=klamra łukowa, haczyk zamiast numeru	!	!LO:TUP:a:problem=klamra łukowa, haczyk zamiast numeru	!
.	.	.	.	8r	.	8r	.	8r	.	8r	.	.	.	.	8r	.	8r	.	24e/LL	.	24ee\LL	.
.	.	.	.	.	.	.	.	.	.	.	.	.	.	.	.	.	.	.	24f/	.	24ff\	.
.	.	.	.	.	.	.	.	.	.	.	.	.	.	.	.	.	.	.	24f#X/JJ	.	24ff#X\JJ	.
=17	=17	=17	=17	=17	=17	=17	=17	=17	=17	=17	=17	=17	=17	=17	=17	=17	=17	=17	=17	=17	=17	=17
*	*	*	*	*	*	*	*	*	*	*	*	*	*	*	*clefF4	*	*	*	*	*	*	*
!	!	!	!	!	!	!	!	!	!	!	!	!	!	!	!LO:TX:t=P:problem=niepewna interpretacja wysokości	!	!	!	!	!	!	!
4C/	.	4Cyy/	.	8.g/	Trze-	8r	.	8r	.	8r	.	2ryy	2ryy	.	[2FFF^/ [2FF	.	2r	.	8.g/L	.	8.gg\L	.
*	*	*	*	*	*	*tremolo	*	*tremolo	*	*tremolo	*	*	*	*	*	*	*	*	*	*	*	*
.	.	.	.	.	.	8c\L	.	8c/L	.	8G/L 8e	.	.	.	.	.	.	.	.	.	.	.	.
.	.	.	.	16a/	-ba	.	.	.	.	.	.	.	.	.	.	.	.	.	16a/Jk	.	16aa\Jk	.
4r	.	4ryy	.	8g/	po-	8c\	.	8c/	.	8G/ 8e	.	.	.	.	.	.	.	.	8g/L	.	8gg\L	.
.	.	.	.	8a/	-tań-	8c\J	.	8c/J	.	8G/J 8e	.	.	.	.	.	.	.	.	8a/J	.	8aa\J	.
*	*	*	*	*	*	*Xtremolo	*	*Xtremolo	*	*Xtremolo	*	*	*	*	*	*	*	*	*	*	*	*
=18	=18	=18	=18	=18	=18	=18	=18	=18	=18	=18	=18	=18	=18	=18	=18	=18	=18	=18	=18	=18	=18	=18
*rep	*	*	*	*	*	*rep	*	*rep	*	*rep	*	*	*	*	*	*	*	*	*	*	*	*
4C\	.	4Cyy/	.	8g/	-co-	8r	.	8r	.	8r	.	2ryy	2ryy	.	2FFF/_ 2FF_	.	2r	.	8g/	.	8gg|\	.
.	.	.	.	4cc\	-wać	8c\L	.	8c/L	.	8G/L 8e	.	.	.	.	.	.	.	.	4cc^<\	.	4ccc|^<\	.
4r	.	4ryy	.	.	.	8c\	.	8c/	.	8G/ 8e	.	.	.	.	.	.	.	.	.	.	.	.
.	.	.	.	8r	.	8c\J	.	8c/J	.	8G/J 8e	.	.	.	.	.	.	.	.	8r	.	8r	.
*Xrep	*	*	*	*	*	*Xrep	*	*Xrep	*	*Xrep	*	*	*	*	*	*	*	*	*	*	*	*
=19	=19	=19	=19	=19	=19	=19	=19	=19	=19	=19	=19	=19	=19	=19	=19	=19	=19	=19	=19	=19	=19	=19
*rep	*	*	*	*	*	*	*	*	*	*	*	*	*	*	*	*	*	*	*	*	*	*
.	.	.	.	.	.	.	.	.	.	.	.	.	.	.	.	.	.	.	(8qee/	.	(8qeee/	.
4C/	.	4Cyy/	.	8.dd\	Trze-	8r	.	8r	.	8r	.	2ryy	2ryy	.	2FFF/_ 2FF_	.	2r	.	8.dd\L)	.	8.ddd\L)	.
*	*	*	*	*	*	*tremolo	*	*tremolo	*	*tremolo	*	*	*	*	*	*	*	*	*	*	*	*
.	.	.	.	.	.	8Bn/L	.	8d/L	.	8G/L 8f	.	.	.	.	.	.	.	.	.	.	.	.
.	.	.	.	16cc#X\	-ba	.	.	.	.	.	.	.	.	.	.	.	.	.	16cc#X|\Jk	.	16ccc#X|\Jk	.
4r	.	4ryy	.	8dd\	i	8B/	.	8d/	.	8G/ 8f	.	.	.	.	.	.	.	.	8dd|\L	.	8ddd|\L	.
.	.	.	.	8bn\	za-	8B/J	.	8d/J	.	8G/J 8f	.	.	.	.	.	.	.	.	8bn|\J	.	8bbn|\J	.
*Xrep	*	*	*	*	*	*Xtremolo	*	*Xtremolo	*	*Xtremolo	*	*	*	*	*	*	*	*	*	*	*	*
=20	=20	=20	=20	=20	=20	=20	=20	=20	=20	=20	=20	=20	=20	=20	=20	=20	=20	=20	=20	=20	=20	=20
*rep	*	*	*	*	*	*	*	*	*	*	*	*	*	*	*	*	*	*	*	*	*	*
4C/	.	4Cyy/	.	8cc\	-nu-	8r	.	8r	.	8r	.	2ryy	2ryy	.	2FFF/] 2FF]	.	2r	.	8cc\	.	8ccc|\	.
*	*	*	*	*	*	*tremolo	*	*tremolo	*	*tremolo	*	*	*	*	*	*	*	*	*	*	*	*
.	.	.	.	4g/	-cić	8c/L	.	8c/L	.	8G/L 8e	.	.	.	.	.	.	.	.	4g^/	.	4gg^<|\	.
4r	.	4ryy	.	.	.	8c/	.	8c/	.	8G/ 8e	.	.	.	.	.	.	.	.	.	.	.	.
!	!	!	!	!	!	!	!	!	!	!	!	!	!	!	!	!	!	!	!LO:TUP:b:problem=klamra łukowa, haczyk zamiast numeru	!	!LO:TUP:a:problem=klamra łukowa, haczyk zamiast numeru	!
.	.	.	.	8r	.	8c/J	.	8c/J	.	8G/J 8e	.	.	.	.	.	.	.	.	24e/LL	.	24ee\LL	.
.	.	.	.	.	.	.	.	.	.	.	.	.	.	.	.	.	.	.	24f/	.	24ff\	.
.	.	.	.	.	.	.	.	.	.	.	.	.	.	.	.	.	.	.	24f#X/JJ	.	24ff#X\JJ	.
*Xrep	*	*	*	*	*	*Xtremolo	*	*Xtremolo	*	*Xtremolo	*	*	*	*	*	*	*	*	*	*	*	*
=21	=21	=21	=21	=21	=21	=21	=21	=21	=21	=21	=21	=21	=21	=21	=21	=21	=21	=21	=21	=21	=21	=21
*rep	*	*	*	*	*	*rep	*	*rep	*	*rep	*	*	*	*	*	*	*	*	*	*	*	*
4C/	.	4Cyy/	.	8.g/	Kie-	8r	.	8r	.	8r	.	2ryy	2ryy	.	[2FFF/ [2FF	.	2r	.	8.g/L	.	8.gg\L	.
.	.	.	.	.	.	8c\L	.	8c/L	.	8G/L 8e	.	.	.	.	.	.	.	.	.	.	.	.
.	.	.	.	16a/	-dyś-	.	.	.	.	.	.	.	.	.	.	.	.	.	16a/Jk	.	16aa\Jk	.
4r	.	4ryy	.	8g/	-ma	8c\	.	8c/	.	8G/ 8e	.	.	.	.	.	.	.	.	8g/L	.	8gg\L	.
.	.	.	.	8a/	ucz-	8c\J	.	8c/J	.	8G/J 8e	.	.	.	.	.	.	.	.	8a/J	.	8aa\J	.
*Xrep	*	*	*	*	*	*Xrep	*	*Xrep	*	*Xrep	*	*	*	*	*	*	*	*	*	*	*	*
=22	=22	=22	=22	=22	=22	=22	=22	=22	=22	=22	=22	=22	=22	=22	=22	=22	=22	=22	=22	=22	=22	=22
4C/	.	4Cyy/	.	8g/	-ci-	8r	.	8r	.	8r	.	2r	2r	.	(2FFF/] (2FF]	.	2r	.	8g/	.	8gg\	.
*	*	*	*	*	*	*tremolo	*	*tremolo	*	*tremolo	*	*	*	*	*	*	*	*	*	*	*	*
.	.	.	.	4cc\	-wi	8c\L	.	8c/L	.	8G/L 8e	.	.	.	.	.	.	.	.	4cc\	.	4ccc\	.
4r	.	4ryy	.	.	.	8c\	.	8c/	.	8G/ 8e	.	.	.	.	.	.	.	.	.	.	.	.
.	.	.	.	8r	.	8c\J	.	8c/J	.	8G/J 8e	.	.	.	.	.	.	.	.	8r	.	8r	.
*	*	*	*	*	*	*Xtremolo	*	*Xtremolo	*	*Xtremolo	*	*	*	*	*	*	*	*	*	*	*	*
=23	=23	=23	=23	=23	=23	=23	=23	=23	=23	=23	=23	=23	=23	=23	=23	=23	=23	=23	=23	=23	=23	=23
*	*	*	*	*	*	*	*	*	*	*	*	*	*	*	*clefG2	*	*	*	*	*	*	*
.	.	.	.	.	.	.	.	.	.	.	.	.	.	.	.	.	.	.	(8qee/	.	(8qeee/	.
8F\	.	8Fyy\	.	8.dd\	Cze-	8r	.	8r	.	8r	.	2r	8F\	.	8r	.	2r	.	8.dd\L)	.	8.ddd\L)	.
8r	.	8ryy	.	.	.	8A\ 8d	.	8d/	.	8A/ 8f	.	.	8r	.	8f\) 8a)	.	.	.	.	.	.	.
.	.	.	.	16a\	-góż	.	.	.	.	.	.	.	.	.	.	.	.	.	16a'\Jk	.	16aa|\Jk	.
8G\	.	8Gyy\	.	8g/	nam	8r	.	8r	.	8r	.	.	8G\	.	8r	.	.	.	8g/L	.	8gg|\L	.
*	*	*	*	*	*	*	*	*	*	*	*	*	*	*	*^	*	*	*	*	*	*	*
8r	.	8ryy	.	8bn\	się	8G\ 8d	.	8d/	.	8G/ 8f	.	.	8r	.	8g/	8f\	.	.	.	8bn/J	.	8bbn|\J	.
*	*	*	*	*	*	*	*	*	*	*	*	*	*	*	*v	*v	*	*	*	*	*	*	*
=24	=24	=24	=24	=24	=24	=24	=24	=24	=24	=24	=24	=24	=24	=24	=24	=24	=24	=24	=24	=24	=24	=24
4C/	.	4Cyy/	.	16dd\	smu-	8r	.	8r	.	8r	.	2r	8C/	.	8r	.	2r	.	16dd\	.	16ddd|\	.
.	.	.	.	16r	.	.	.	.	.	.	.	.	.	.	.	.	.	.	16r	.	16r	.
.	.	.	.	4cc\	-cić	8c\L	.	8c/L	.	8G/L 8e	.	.	4C/	.	4c/ 4g	.	.	.	4cc\	.	4ccc|\	.
4r	.	4ryy	.	.	.	8c\J	.	8c/J	.	8G/J 8e	.	.	.	.	.	.	.	.	.	.	.	.
.	.	.	.	8r	.	8r	.	8r	.	8c/	.	.	8r	.	8r	.	.	.	8r	.	8r	.
=25	=25	=25	=25	=25	=25	=25	=25	=25	=25	=25	=25	=25	=25	=25	=25	=25	=25	=25	=25	=25	=25	=25
!!LO:TX:t=P:problem:w fl.picc, fl, ob, cor in F, fag, tr w t. 25-31 nieoznaczona powtórka t. 9-15; w partiach vl 1, vl 2, vla, vlc, cb powtórka rozpoczyna się dwa takty później
!	!	!	!	!	!	!	!	!	!	!	!	!	!	!	!	!	!LO:TX:a:t=Iv.	!	!	!	!	!
4C/	.	4Cyy/	.	8.b-X/	Hej-	8r	.	8r	.	8.b-X/L	.	2ryy	2ryy	.	2ryy	.	16B-yy/LL	pyy	2ryy	.	2ryy	.
.	.	.	.	.	.	.	.	.	.	.	.	.	.	.	.	.	16cyy/	.	.	.	.	.
*	*	*	*	*	*	*tremolo	*	*tremolo	*	*	*	*	*	*	*	*	*	*	*	*	*	*
.	.	.	.	.	.	8G/L 8c	.	8B-X/L 8e	.	.	.	.	.	.	.	.	16eyy/	.	.	.	.	.
.	.	.	.	16g/	-że	.	.	.	.	16g/K	.	.	.	.	.	.	16cyy/JJ	.	.	.	.	.
*	*	*	*	*	*	*	*	*	*	*	*	*	*	*	*	*	*rep	*	*	*	*	*
4r	.	4ryy	.	8e/	Ka-	8G/ 8c	.	8B-/ 8e	.	8e/	.	.	.	.	.	.	16B-yy/LL	.	.	.	.	.
.	.	.	.	.	.	.	.	.	.	.	.	.	.	.	.	.	16cyy/	.	.	.	.	.
.	.	.	.	8c/	-siu	8G/J 8c	.	8B-/J 8e	.	8c/J	.	.	.	.	.	.	16eyy/	.	.	.	.	.
.	.	.	.	.	.	.	.	.	.	.	.	.	.	.	.	.	16cyy/JJ	.	.	.	.	.
*	*	*	*	*	*	*Xtremolo	*	*Xtremolo	*	*	*	*	*	*	*	*	*Xrep	*	*	*	*	*
=26	=26	=26	=26	=26	=26	=26	=26	=26	=26	=26	=26	=26	=26	=26	=26	=26	=26	=26	=26	=26	=26	=26
4FF/	.	4FFyy/	.	8f/	do	8r	.	8r	.	8f/	.	2ryy	2ryy	.	2ryy	.	16Ayy/LL	.	2ryy	.	2ryy	.
.	.	.	.	.	.	.	.	.	.	.	.	.	.	.	.	.	16cyy/	.	.	.	.	.
*	*	*	*	*	*	*tremolo	*	*tremolo	*	*	*	*	*	*	*	*	*	*	*	*	*	*
.	.	.	.	4a/	mnie	8F/L 8c	.	8A/L 8f	.	4a/	.	.	.	.	.	.	16fyy/	.	.	.	.	.
.	.	.	.	.	.	.	.	.	.	.	.	.	.	.	.	.	16cyy/JJ	.	.	.	.	.
*	*	*	*	*	*	*	*	*	*	*	*	*	*	*	*	*	*rep	*	*	*	*	*
4r	.	4ryy	.	.	.	8F/ 8c	.	8A/ 8f	.	.	.	.	.	.	.	.	16Ayy/LL	.	.	.	.	.
.	.	.	.	.	.	.	.	.	.	.	.	.	.	.	.	.	16cyy/	.	.	.	.	.
.	.	.	.	8r	.	8F/J 8c	.	8A/J 8f	.	8cc\	.	.	.	.	.	.	16fyy/	.	.	.	.	.
.	.	.	.	.	.	.	.	.	.	.	.	.	.	.	.	.	16cyy/JJ	.	.	.	.	.
*	*	*	*	*	*	*Xtremolo	*	*Xtremolo	*	*	*	*	*	*	*	*	*Xrep	*	*	*	*	*
=27	=27	=27	=27	=27	=27	=27	=27	=27	=27	=27	=27	=27	=27	=27	=27	=27	=27	=27	=27	=27	=27	=27
.	.	.	.	.	.	.	.	.	.	(yy8qccyy/	.	.	.	.	.	.	.	.	8qccyy/	.	8qcccyy/	pyy
4Fyy\	.	4Fyy\	.	8.b-\	Nie-	8ryy	.	8ryy	.	8.b-yy\L)	.	2ryy	2ryy	.	2Fyy/ 2fyy	pyy	16B-yy/LL	.	8.b-yy/L	.	8.bb-yy\L	.
.	.	.	.	.	.	.	.	.	.	.	.	.	.	.	.	.	16dyy/	.	.	.	.	.
*	*	*	*	*	*	*tremolo	*	*tremolo	*	*	*	*	*	*	*	*	*	*	*	*	*	*
.	.	.	.	.	.	8Fyy\L 8dyy\	.	8B-yy/L 8fyy	.	.	.	.	.	.	.	.	16fyy/	.	.	.	.	.
.	.	.	.	16a\	-day	.	.	.	.	16ayy|\K	.	.	.	.	.	.	16dyy/JJ	.	16ayy/K	.	16aayy\K	.
*	*	*	*	*	*	*	*	*	*	*	*	*	*	*	*	*	*rep	*	*	*	*	*
4ryy	.	4ryy	.	8b-\	mi	8Fyy\ 8dyy\	.	8B-yy/ 8fyy	.	8b-yy|\	.	.	.	.	.	.	16B-yy/LL	.	8b-yy/	.	8bb-yy\	.
.	.	.	.	.	.	.	.	.	.	.	.	.	.	.	.	.	16dyy/	.	.	.	.	.
.	.	.	.	8dd\	pró-	8Fyy\J 8dyy\	.	8B-yy/J 8fyy	.	8ddyy|\J	.	.	.	.	.	.	16fyy/	.	8ddyy/J	.	8dddyy\J	.
.	.	.	.	.	.	.	.	.	.	.	.	.	.	.	.	.	16dyy/JJ	.	.	.	.	.
*	*	*	*	*	*	*Xtremolo	*	*Xtremolo	*	*	*	*	*	*	*	*	*Xrep	*	*	*	*	*
=28	=28	=28	=28	=28	=28	=28	=28	=28	=28	=28	=28	=28	=28	=28	=28	=28	=28	=28	=28	=28	=28	=28
4Fyy\	.	4Fyy\	.	8cc\	-żno-	8ryy	.	8ryy	.	8ccyy|\	.	2ryy	2ryy	.	8Fyy/ 8fyy	.	16Ayy/LL	.	8ccyy/	.	8cccyy\	.
.	.	.	.	.	.	.	.	.	.	.	.	.	.	.	.	.	16cyy/	.	.	.	.	.
*	*	*	*	*	*	*tremolo	*	*tremolo	*	*	*	*	*	*	*	*	*	*	*	*	*	*
.	.	.	.	4a/	-wać	8Fyy\L 8cyy\	.	8Ayy/L 8fyy	.	4ayy|/	.	.	.	.	4Fyy/ 4fyy	.	16fyy/	.	4ayy/	.	4aayy\	.
.	.	.	.	.	.	.	.	.	.	.	.	.	.	.	.	.	16cyy/JJ	.	.	.	.	.
*	*	*	*	*	*	*	*	*	*	*	*	*	*	*	*	*	*rep	*	*	*	*	*
4ryy	.	4ryy	.	.	.	8Fyy\ 8cyy\	.	8Ayy/ 8fyy	.	.	.	.	.	.	.	.	16Ayy/LL	.	.	.	.	.
.	.	.	.	.	.	.	.	.	.	.	.	.	.	.	.	.	16cyy/	.	.	.	.	.
.	.	.	.	8r	.	8Fyy\J 8cyy\	.	8Ayy/J 8fyy	.	8ryy	.	.	.	.	8ryy	.	16fyy/	.	8ryy	.	8ryy	.
.	.	.	.	.	.	.	.	.	.	.	.	.	.	.	.	.	16cyy/JJ	.	.	.	.	.
*	*	*	*	*	*	*Xtremolo	*	*Xtremolo	*	*	*	*	*	*	*	*	*Xrep	*	*	*	*	*
=29	=29	=29	=29	=29	=29	=29	=29	=29	=29	=29	=29	=29	=29	=29	=29	=29	=29	=29	=29	=29	=29	=29
.	.	.	.	.	.	.	.	.	.	.	.	.	.	.	.	.	.	.	.	.	.	.
4Cyy\	.	4Cyy/	.	8.b-/	Kie-	8ryy	.	8ryy	.	8.b-yy|/L)	.	2ryy	2ryy	.	2ryy	.	16B-yy/LL	.	2ryy	.	2ryy	.
.	.	.	.	.	.	.	.	.	.	.	.	.	.	.	.	.	16cyy/	.	.	.	.	.
*	*	*	*	*	*	*tremolo	*	*tremolo	*	*	*	*	*	*	*	*	*	*	*	*	*	*
.	.	.	.	.	.	8Gyy/L 8cyy	.	8B-yy/L 8eyy	.	.	.	.	.	.	.	.	16eyy/	.	.	.	.	.
.	.	.	.	16g/	-dyś	.	.	.	.	16gyy|/J	.	.	.	.	.	.	16cyy/JJ	.	.	.	.	.
*	*	*	*	*	*	*	*	*	*	*	*	*	*	*	*	*	*rep	*	*	*	*	*
4ryy	.	4ryy	.	8e/	ma	8Gyy/ 8cyy	.	8B-yy/ 8eyy	.	8eyy|/L	.	.	.	.	.	.	16B-yy/LL	.	.	.	.	.
.	.	.	.	.	.	.	.	.	.	.	.	.	.	.	.	.	16cyy/	.	.	.	.	.
.	.	.	.	8c/	we-	8Gyy/J 8cyy	.	8B-yy/J 8eyy	.	8cyy|/J	.	.	.	.	.	.	16eyy/	.	.	.	.	.
.	.	.	.	.	.	.	.	.	.	.	.	.	.	.	.	.	16cyy/JJ	.	.	.	.	.
*	*	*	*	*	*	*Xtremolo	*	*Xtremolo	*	*	*	*	*	*	*	*	*Xrep	*	*	*	*	*
=30	=30	=30	=30	=30	=30	=30	=30	=30	=30	=30	=30	=30	=30	=30	=30	=30	=30	=30	=30	=30	=30	=30
4FFyy/	.	4FFyy/	.	8f/	-se-	8ryy	.	8ryy	.	8fyy/	.	2ryy	2r	.	2ryy	.	16Ayy/LL	.	2ryy	.	2ryy	.
.	.	.	.	.	.	.	.	.	.	.	.	.	.	.	.	.	16cyy/	.	.	.	.	.
*	*	*	*	*	*	*tremolo	*	*tremolo	*	*	*	*	*	*	*	*	*	*	*	*	*	*
.	.	.	.	4a/	-li	8Fyy/L 8cyy	.	8Ayy/L 8fyy	.	4ayy/	.	.	.	.	.	.	16fyy/	.	.	.	.	.
.	.	.	.	.	.	.	.	.	.	.	.	.	.	.	.	.	16cyy/JJ	.	.	.	.	.
*	*	*	*	*	*	*	*	*	*	*	*	*	*	*	*	*	*rep	*	*	*	*	*
4ryy	.	4ryy	.	.	.	8Fyy/ 8cyy	.	8Ayy/ 8fyy	.	.	.	.	.	.	.	.	16Ayy/LL	.	.	.	.	.
.	.	.	.	.	.	.	.	.	.	.	.	.	.	.	.	.	16cyy/	.	.	.	.	.
.	.	.	.	8r	.	8Fyy/J 8cyy	.	8Ayy/J 8fyy	.	(yy>[yy8ccyy	.	.	.	.	.	.	16fyy/	.	.	.	.	.
.	.	.	.	.	.	.	.	.	.	.	.	.	.	.	.	.	16cyy/JJ	.	.	.	.	.
*	*	*	*	*	*	*Xtremolo	*	*Xtremolo	*	*	*	*	*	*	*	*	*Xrep	*	*	*	*	*
=31	=31	=31	=31	=31	=31	=31	=31	=31	=31	=31	=31	=31	=31	=31	=31	=31	=31	=31	=31	=31	=31	=31
4Cyy/	.	4Cyy/	.	8.cc\	Trze-	8ryy	.	8ryy	.	8.ccyy\L]yy	.	2ryy	2r	.	2cyy/ 2gyy	pyy	16B-yy/LL	.	2ryy	.	(yy8cccyy\L	.
.	.	.	.	.	.	.	.	.	.	.	.	.	.	.	.	.	16cyy/	.	.	.	.	.
*	*	*	*	*	*	*tremolo	*	*tremolo	*	*	*	*	*	*	*	*	*	*	*	*	*	*
.	.	.	.	.	.	8Gyy/L 8cyy	.	8B-yy/L 8eyy	.	.	.	.	.	.	.	.	16eyy/	.	.	.	8bbnyy\J)yy	.
.	.	.	.	16bn\	-ba	.	.	.	.	16bnyyJ)yy	.	.	.	.	.	.	16cyy/JJ	.	.	.	.	.
*	*	*	*	*	*	*	*	*	*	*	*	*	*	*	*	*	*rep	*	*	*	*	*
4ryy	.	4ryy	.	8b-X\	po-	8Gyy/ 8cyy	.	8B-yy/ 8eyy	.	8b-yy'/L	.	.	.	.	.	.	16B-yy/LL	.	.	.	8bb-yyX'\L	.
.	.	.	.	.	.	.	.	.	.	.	.	.	.	.	.	.	16cyy/	.	.	.	.	.
.	.	.	.	8g/	-tań-	8Gyy/J 8cyy	.	8B-yy/J 8eyy	.	8gyy'/J	.	.	.	.	.	.	16eyy/	.	.	.	8ggyy'\J	.
.	.	.	.	.	.	.	.	.	.	.	.	.	.	.	.	.	16cyy/JJ	.	.	.	.	.
*	*	*	*	*	*	*Xtremolo	*	*Xtremolo	*	*	*	*	*	*	*	*	*Xrep	*	*	*	*	*
=32	=32	=32	=32	=32	=32	=32	=32	=32	=32	=32	=32	=32	=32	=32	=32	=32	=32	=32	=32	=32	=32	=32
4F\	.	4Fyy\	.	8g/	-co-	8r	.	8r	.	8g/	.	4r	2r	.	8r	.	16A/LL	.	2r	.	8gg\	.
.	.	.	.	.	.	.	.	.	.	.	.	.	.	.	.	.	16c/	.	.	.	.	.
.	.	.	.	4f/	-wać	8F/L 8c	.	8A/L 8f	.	4f/	.	.	.	.	4A/ 4f	.	16f/	.	.	.	4ff^<\	.
.	.	.	.	.	.	.	.	.	.	.	.	.	.	.	.	.	16c/JJ	.	.	.	.	.
4r	.	4ryy	.	.	.	8F/J 8c	.	8A/J 8f	.	.	.	8r	.	.	.	.	8f/	.	.	.	.	.
!	!	!	!	!	!	!	!	!	!	!LO:TUP:a:problem=klamra łukowa, haczyk zamiast numeru	!	!LO:TUP:b:problem=klamra łukowa, haczyk zamiast numeru	!	!	!	!	!LO:TUP:b:problem=klamra łukowa, haczyk zamiast numeru	!	!	!	!LO:TUP:a:problem=klamra łukowa, haczyk zamiast numeru	!
.	.	.	.	8r	.	8r	.	8r	.	24ee\LL	.	24e/LL	.	.	8r	.	24e/LL	.	.	.	24ee\LL	.
.	.	.	.	.	.	.	.	.	.	24ff\	.	24f/	.	.	.	.	24f/	.	.	.	24ff\	.
.	.	.	.	.	.	.	.	.	.	24ff#X\JJ	.	24f#X/JJ	.	.	.	.	24f#X/JJ	.	.	.	24ff#X\JJ	.
=33	=33	=33	=33	=33	=33	=33	=33	=33	=33	=33	=33	=33	=33	=33	=33	=33	=33	=33	=33	=33	=33	=33
*	*	*	*	*	*	*	*	*	*	*	*	*	*	*	*	*	*^	*	*	*	*	*
!	!	!	!	!	!	!	!	!	!	!	!	!	!	!	!	!	!	!	!	!	!	!LO:TX:a:t=Col Vo. Io.	!
!	!	!	!	!	!	!	!	!	!	!	!	!LO:TX:a:t=Col Io. Clarinetto	!	!	!	!	!	!	!	!	!	!	!
!	!	!	!	!	!	!	!	!	!	!	!	!LO:TX:t=P:problem=col oboe 1?	!	!	!	!	!	!	!	!	!	!	!
4C/	.	4Cyy/	.	2ryy	.	8r	.	8r	f	8gg|\	f	8gyy/	2ryy	.	8c/ 8g	.	8g/	8e\	.	8b-\	f	8ggyy\	.
.	.	.	.	.	.	4G/ 4c	.	4B-/ 4e	.	4ccc^<|\	.	4ccyy/	.	.	4c/ 4g	.	4cc/	4e\	.	4b-\	.	4cccyy^<\	.
4r	.	4ryy	.	.	.	.	.	.	.	.	.	.	.	.	.	.	.	.	.	.	.	.	.
.	.	.	.	.	.	8G/ 8c	.	8B-/ 8e	.	8bb-|\	.	8gyy/	.	.	8c/ 8g	.	8b-/	8e\	.	8b-\	.	8bb-yy\	.
=34	=34	=34	=34	=34	=34	=34	=34	=34	=34	=34	=34	=34	=34	=34	=34	=34	=34	=34	=34	=34	=34	=34	=34
4F\	.	4Fyy\	.	2ryy	.	4F/ 4c	.	4A/ 4f	.	(16aa\LL	.	16ayyL	2ryy	.	4A/ 4f	.	16a/LL	4f\	.	4a\	.	(yy16aayy\LL	.
.	.	.	.	.	.	.	.	.	.	16bb-\	.	16b-yy	.	.	.	.	16b-/	.	.	.	.	16bb-yy\	.
.	.	.	.	.	.	.	.	.	.	16ccc\	.	16ccyy	.	.	.	.	16cc/	.	.	.	.	16cccyy\	.
.	.	.	.	.	.	.	.	.	.	16ddd\JJ	.	16ddyyJ	.	.	.	.	16dd/JJ	.	.	.	.	16dddyy\JJ	.
4F\	.	4Fyy\	.	.	.	4F/ 4c	.	4A/ 4f	.	8ccc\L)	.	8ccyyL	.	.	4A/ 4f	.	8cc/L	4f\	.	4a\	.	8cccyy\L)yy	.
.	.	.	.	.	.	.	.	.	.	8ff'\J	.	8fyyJ	.	.	.	.	8f/J	.	.	.	.	8ffyy'\J	.
=35	=35	=35	=35	=35	=35	=35	=35	=35	=35	=35	=35	=35	=35	=35	=35	=35	=35	=35	=35	=35	=35	=35	=35
4C/	.	4Cyy/	.	2ryy	.	8r	.	8r	.	8ee'\	.	8eyy	2ryy	.	8c/ 8g	.	8e/	8e\	.	8b-\	.	8eeyy'\	.
.	.	.	.	.	.	4G/ 4c	.	4B-/ 4e	.	4ccc'^<\	.	4ccyy	.	.	4c/ 4g	.	4cc/	4e\	.	4b-\	.	4cccyy'^<\	.
4r	.	4ryy	.	.	.	.	.	.	.	.	.	.	.	.	.	.	.	.	.	.	.	.	.
.	.	.	.	.	.	8G/ 8c	.	8B-/ 8e	.	8bb-'\	.	8b-yy	.	.	8c/ 8g	.	8b-/	8e\	.	8b-\	.	8bb-yy'\	.
=36	=36	=36	=36	=36	=36	=36	=36	=36	=36	=36	=36	=36	=36	=36	=36	=36	=36	=36	=36	=36	=36	=36	=36
8F\L	.	8Fyy\L	.	2r	.	8F/L 8c	.	8A/L 8f	.	(16aa\LL	.	16ayyL	2ryy	.	8ff\L 8aa	.	16a/LL	8f\L	.	8a\L	.	(yy16aayy/LL	.
.	.	.	.	.	.	.	.	.	.	16bb-\	.	16b-yy	.	.	.	.	16b-/	.	.	.	.	16bb-yy/	.
8C\	.	8Cyy\	.	.	.	8G/ 8c	.	8B-/ 8e	.	16gg\	.	16gyy	.	.	8cc\J 8gg	.	16g/	8e\J	.	8b-\J	.	16ggyy/	.
.	.	.	.	.	.	.	.	.	.	16aa\JJ	.	16ayyJ	.	.	.	.	16a/JJ	.	.	.	.	16aayy/JJ	.
8F\J	.	8Fyy\J	.	.	.	8F/J 8c	.	8A/J 8f	.	8ff\)	.	8fyy	.	.	8a/ 8ff	.	8f/	8f\	.	8a\	.	8ffyy/)	.
*	*	*	*	*	*	*	*	*	*	*	*	*	*	*	*	*	*v	*v	*	*	*	*	*
8r	.	8ryy	.	.	.	8r	.	8r	.	8r	.	8ryy	.	.	8r	.	8r	.	8r	.	8ryy	.
=37	=37	=37	=37	=37	=37	=37	=37	=37	=37	=37	=37	=37	=37	=37	=37	=37	=37	=37	=37	=37	=37	=37
2ryy	.	2ryy	.	2r	.	2ryy	.	2ryy	.	8gg'\	.	2ryy	2ryy	.	2ryy	.	2ryy	.	2ryy	.	8ggyy'\	.
.	.	.	.	.	.	.	.	.	.	4ccc'^\	.	.	.	.	.	.	.	.	.	.	4cccyy'^\	.
.	.	.	.	.	.	.	.	.	.	8bb-'\	.	.	.	.	.	.	.	.	.	.	8bb-yy'\	.
=38	=38	=38	=38	=38	=38	=38	=38	=38	=38	=38	=38	=38	=38	=38	=38	=38	=38	=38	=38	=38	=38	=38
2ryy	.	2ryy	.	2r	.	2ryy	.	2ryy	.	(16aa\LL	.	2ryy	2ryy	.	2ryy	.	2ryy	.	2ryy	.	(yy16aayy\LL	.
.	.	.	.	.	.	.	.	.	.	16bb-\	.	.	.	.	.	.	.	.	.	.	16bb-yy\	.
.	.	.	.	.	.	.	.	.	.	16ccc\	.	.	.	.	.	.	.	.	.	.	16cccyy\	.
.	.	.	.	.	.	.	.	.	.	16ddd\JJ)	.	.	.	.	.	.	.	.	.	.	16dddyy\JJ)yy	.
.	.	.	.	.	.	.	.	.	.	8ccc\L	.	.	.	.	.	.	.	.	.	.	8cccyy\L	.
.	.	.	.	.	.	.	.	.	.	8ff'\J	.	.	.	.	.	.	.	.	.	.	8ffyy'\J	.
=39	=39	=39	=39	=39	=39	=39	=39	=39	=39	=39	=39	=39	=39	=39	=39	=39	=39	=39	=39	=39	=39	=39
*	*	*	*	*	*	*	*	*	*	*	*	*	*	*	*	*	*^	*	*	*	*	*
4C/	.	4Cyy/	.	2r	.	8r	.	8r	.	8ee\	.	8e/	4C/	.	8c\ 8g	.	8e/	8e\	.	8b-\	.	8ee\	.
.	.	.	.	.	.	4G/ 4c	.	4B-/ 4e	.	4ccc\	.	4cc/	.	.	4c\ 4g	.	4cc/	4e\	.	4b-\	.	4bb-\	.
4r	.	4ryy	.	.	.	.	.	.	.	.	.	.	4r	.	.	.	.	.	.	.	.	.	.
.	.	.	.	.	.	8G/ 8c	.	8B-/ 8e	.	8ee\	.	8e/	.	.	8c\ 8g	.	8g/	8e\	.	8b-\	.	8ee\	.
=40	=40	=40	=40	=40	=40	=40	=40	=40	=40	=40	=40	=40	=40	=40	=40	=40	=40	=40	=40	=40	=40	=40	=40
8F\	.	8Fyy\	.	2r	.	8F/ 8c	.	8A/ 8f	.	8ff\	.	8f/	8F\	.	8A/ 8f	.	8f/	8f\	.	8a\	.	8ff\	.
*	*	*	*	*	*	*	*	*	*	*	*	*	*	*	*	*	*v	*v	*	*	*	*	*
8r	ff	8ryy	ffyy	.	.	8r	ff	8r	.	8r	ff	8r	8r	ff	8r	.	8r	ff	8r	.	8r	ff
*	*	*	*	*	*	*	*	*	*	*	*	*	*	*	*	*	*^	*	*	*	*	*
4FF/	.	4FFyy/	.	.	.	4F/ 4c	.	4A/ 4f 4cc	.	4a\ 4ff	.	4f/	4FF/	.	4A/ 4f	.	4cc/	4a\	.	4ff\	.	4fff\	.
*	*	*	*	*	*	*	*	*	*	*	*	*	*	*	*	*	*v	*v	*	*	*	*	*
==	==	==	==	==	==	==	==	==	==	==	==	==	==	==	==	==	==	==	==	==	==	==
*-	*-	*-	*-	*-	*-	*-	*-	*-	*-	*-	*-	*-	*-	*-	*-	*-	*-	*-	*-	*-	*-	*-
!!!system-decoration: [(g1){(g2)}s9<s10>{(g3)}]
!!!RDF**kern: > = above
!!!RDF**kern: < = below
!!!RDF**kern: | = vertical stroke
!!!ENC: Kamil Watkowski
!!!END: 2021-08-02
